assets/wifi_signal_5.svg

<?xml version="1.0" encoding="UTF-8" standalone="no"?>
<svg
   xmlns:dc="http://purl.org/dc/elements/1.1/"
   xmlns:cc="http://creativecommons.org/ns#"
   xmlns:rdf="http://www.w3.org/1999/02/22-rdf-syntax-ns#"
   xmlns:svg="http://www.w3.org/2000/svg"
   xmlns="http://www.w3.org/2000/svg"
   xmlns:sodipodi="http://sodipodi.sourceforge.net/DTD/sodipodi-0.dtd"
   xmlns:inkscape="http://www.inkscape.org/namespaces/inkscape"
   width="24"
   height="24"
   viewBox="0 0 24 24"
   version="1.1"
   id="svg865"
   sodipodi:docname="wifi_signal_5.svg"
   inkscape:version="0.92.3 (2405546, 2018-03-11)">
  <metadata
     id="metadata871">
    <rdf:RDF>
      <cc:Work
         rdf:about="">
        <dc:format>image/svg+xml</dc:format>
        <dc:type
           rdf:resource="http://purl.org/dc/dcmitype/StillImage" />
        <dc:title></dc:title>
      </cc:Work>
    </rdf:RDF>
  </metadata>
  <defs
     id="defs869" />
  <sodipodi:namedview
     pagecolor="#ffffff"
     bordercolor="#666666"
     borderopacity="1"
     objecttolerance="10"
     gridtolerance="10"
     guidetolerance="10"
     inkscape:pageopacity="0"
     inkscape:pageshadow="2"
     inkscape:window-width="2560"
     inkscape:window-height="1320"
     id="namedview867"
     showgrid="false"
     inkscape:zoom="47.458333"
     inkscape:cx="12"
     inkscape:cy="12"
     inkscape:window-x="2560"
     inkscape:window-y="27"
     inkscape:window-maximized="1"
     inkscape:current-layer="svg865" />
  <path
     d="M4.504 13.572l-1.505-1.489c2.201-2.805 5.413-4.583 9.001-4.583s6.8 1.779 9 4.583l-1.504 1.489c-1.835-2.338-4.512-3.822-7.496-3.822s-5.661 1.484-7.496 3.822zm7.496.678c1.791 0 3.397.891 4.498 2.293l1.502-1.488c-1.467-1.869-3.608-3.055-6-3.055s-4.533 1.186-6 3.055l1.502 1.488c1.101-1.402 2.707-2.293 4.498-2.293zm0 2.25c-1.196 0-2.258.602-2.99 1.536l2.99 2.964 2.99-2.963c-.732-.935-1.794-1.537-2.99-1.537zm0-11.25c4.179 0 7.927 2.078 10.495 5.351l1.505-1.491c-2.935-3.739-7.217-6.11-12-6.11s-9.065 2.371-12 6.11l1.505 1.491c2.568-3.273 6.316-5.351 10.495-5.351z"
     id="path863" />
</svg>

<svg xmlns="http://www.w3.org/2000/svg" width="24" height="24"><path d="M4.504 13.572l-1.505-1.489C5.2 9.278 8.412 7.5 12 7.5s6.8 1.779 9 4.583l-1.504 1.489C17.661 11.234 14.984 9.75 12 9.75s-5.661 1.484-7.496 3.822zM12 14.25c1.791 0 3.397.891 4.498 2.293L18 15.055C16.533 13.186 14.392 12 12 12s-4.533 1.186-6 3.055l1.502 1.488C8.603 15.141 10.209 14.25 12 14.25zm0 2.25c-1.196 0-2.258.602-2.99 1.536L12 21l2.99-2.963c-.732-.935-1.794-1.537-2.99-1.537zm0-11.25c4.179 0 7.927 2.078 10.495 5.351L24 9.11C21.065 5.371 16.783 3 12 3S2.935 5.371 0 9.11l1.505 1.491C4.073 7.328 7.821 5.25 12 5.25z"/></svg>
